X:1040
T: Jack's Alive
T: T\'a Jeaic Beo
S: B.Breathnach:"Ceol Rince na hEireann" IV/116
Z: B.Black
L: 1/8
M: 4/4
R: reel
K: G
G2 BG A2 Bc|dcBc AFDF|G2 BG A2 Bc|dBcA (3GGG G2 :|
g2 bg f2 af|e2 fa gfed|g2 bg f2 af|egfa (3ggg g2|
g2 bg f2 af|e2 fa gfed|g2 bg dg (3ege|dBcA G2 g2 ||
